X:1
T:Title
%%score { ( 1 3 ) | ( 2 4 ) }
L:1/8
Q:1/4=100
M:4/4
K:Eb
V:1 treble nm="Grand Piano"
V:3 treble 
V:2 bass 
V:4 bass 
V:1
 [EG]4 [FA]2 [GB]2 | [_Gd]2 [Gc]2 [=GB]4 | e4 e2 d2 | z4 B4 | [Af]4 d2 B2 | c2 [Ad]2 [Ge]4 | %6
w: S.~M.~Bixby * *||||||
 [EB]4 [DA]2 [DF]2 | [EG]2 [E=A]2 [DB]4 | G4 G2 G2 | G2 _G6 | c4 z4 | [_Gc]2 B6 | e4 d2 _d2 | %13
w: |||||||
 z4 G4[K:bass] | E4[K:treble] z4 | [B,EG]8 |] %16
w: |||
V:2
 [E,B,]4 [E,B,]2 [E,B,]2 | [E,=A,]2 [E,A,]2 [E,B,]4 | [G,B,E]4 [G,=B,F]2 [G,B,F]2 | z4 E2 z2 | %4
 [D,B,]4 [F,B,F]2 [A,B,D]2 | [G,B,E]2 [F,B,]2 [E,B,]4 | [G,B,]4 [F,B,]2 [B,,B,]2 | %7
 [E,B,]2 [C,F,]2 [B,,F,]4 | [E,B,]4 [E,B,E]2 [E,B,D]2 | [E,=A,C]8 | C2 z2 z4 | E,2- [E,B,G]6 | %12
 [G,B,E]4 [F,A,F]2 [G,B,E]2 | A,2 z2 [B,E]4 | C4 z4 | E,8 |] %16
V:3
 x8 | x8 | x8 | d2 c2 z2 B,2 | x8 | x8 | x8 | x8 | x8 | x8 | z2 D2 c2 [Fc]2 | x8 | x8 | %13
 c2 B2 z2[K:bass] D,2 | z2 B,,2[K:treble] [=B,EF]4 | x8 |] %16
V:4
 x8 | x8 | x8 | [A,=B,F]2 [A,CE]2 G,4 | x8 | x8 | x8 | x8 | x8 | x8 | [E,A,]4 [E,A,E]2 [E,A,]2 | %11
 =A,2 z2 z4 | x8 | E2- [G,B,E]2 E,2 z2 | C,2 z2 A,,4 | x8 |] %16

